X: 13107
T: Firefly, The
R: jig
M: 6/8
K: Gmajor
BDD cDD|BDD AFD|GBd gdB|cBc AFD|
BDD cDD|BDD AFD|GBd gdB|cAF G2:|
GBd gfg|ece dBG|cBA BAG|DFA cBA|
GBd gfg|ece dBG|cBA BAG|DFA G2:|

